cdn/fa/svgs/sharp-regular/calendar-lines.svg

<svg xmlns="http://www.w3.org/2000/svg" viewBox="0 0 448 512"><!--! Font Awesome Pro 6.5.1 by @fontawesome - https://fontawesome.com License - https://fontawesome.com/license (Commercial License) Copyright 2023 Fonticons, Inc. --><path d="M152 24V0H104V24 64H0v80 48V464v48H48 400h48V464 192 144 64H344V24 0H296V24 64H152V24zM48 192H400V464H48V192zm48 88c0 13.3 10.7 24 24 24H328c13.3 0 24-10.7 24-24s-10.7-24-24-24H120c-13.3 0-24 10.7-24 24zm24 72c-13.3 0-24 10.7-24 24s10.7 24 24 24H232c13.3 0 24-10.7 24-24s-10.7-24-24-24H120z"/></svg>

<svg xmlns="http://www.w3.org/2000/svg" viewBox="0 0 448 512"><!--! Font Awesome Pro 6.5.2 by @fontawesome - https://fontawesome.com License - https://fontawesome.com/license (Commercial License) Copyright 2024 Fonticons, Inc. --><path d="M152 24l0-24L104 0l0 24 0 40L0 64l0 80 0 48L0 464l0 48 48 0 352 0 48 0 0-48 0-272 0-48 0-80L344 64l0-40 0-24L296 0l0 24 0 40L152 64l0-40zM48 192l352 0 0 272L48 464l0-272zm48 64l0 48 256 0 0-48L96 256zm160 96L96 352l0 48 160 0 0-48z"/></svg>
